X:1
T:212-14
T:Klein-Zschocher müsse so zart und süße
T:BWV 212/14
T:Johann Sebastian Bach arr. André Papillon 
%%score 1 { ( 2 3 ) | 4 }
L:1/8
Q:1/8=140
M:3/8
K:A
V:1 treble nm="Flûte"
V:2 treble nm="Piano"
V:3 treble 
V:4 bass 
V:1
 EAB | c2 B | EBc | d2 c | eee | ed/c/B/A/ | Gdc |{c} B3 | E/F/4G/4A/E/B/E/ | %9
 c/4B/4A/4G/4A/c/B/G/ | E/4F/4G/4A/4B/E/c/E/ | d/4c/4B/4A/4B/d/c/A/ | E/e/A/e/B/e/ | c/e/d/c/B/A/ | %14
 G/4A/4B/4c/4d/B/c/A/ | B/4e/4d/4c/4B/4A/4G/4F/4E | edc | (d3/2e/4f/4)e | dcB | (c3/2d/4e/4)d | %20
 EEE | EF/G/A/B/ | cdTB | A3 | e/4d/4c/4e/4d/A/c/A/ | d/A/f/A/e/A/ | d/4c/4B/4d/4c/G/B/G/ | %27
 c/G/e/G/d/G/ | c/4B/4A/4c/4B/4A/4G/4B/4A/4G/4F/4A/4 | G/E/F/G/A/B/ | c/d/4e/4d/c/B/c/ | %31
 A/B/4c/4d/4e/4f/4g/4 a | (3(c/B/A/) E2- | E/F/G/A/B/c/ | (3(d/c/B/) E2- | E/G/A/B/c/d/ | %36
 (3(e/d/c/) (3(d/c/B/) (3(c/B/A/) | (3(G/A/B/) (3(B/c/d/) (3(d/e/f/) | (3(B/c/d/){A} G>A | %39
 (3A/G/F/ (3G/B/A/ (3G/F/E/ | e3- | e3- | e3- | e3- | e3- | e3- | e3- | e2 z | (3(A/B/c/) =g2- | %49
 (3g/a/=g/ (3(f/e/d/) (3(c/B/A/) | (3(A/B/c/) (f3/2=g/4a/4) | (3(a/=g/f/) (3(g/f/e/) (3(f/e/d/) | %52
 (3(c/B/A/) (3(E/A/c/) (3(A/c/e/) | (3(c/e/a/) (B3/2c/4d/4) | (3(c/B/A/) f-(3(f/e/d/) | %55
 (3(c/d/e/) (3(A/c/d/) (3(e/f/g/) | a3- | a3- | a3- | a3- | a3- | a3- | %62
 (3a/g/f/ (3(f/e/d/) (3(d/c/B/) | (3c/A/c/ (3e/c/e/ (3a/e/c/ | (3A/c/e/ (3a/e/a/ (3b/e/b/ | %65
 (3c'/e/d/ (3c/B/A/ (3B/E/G/ | (3B/e/g/ (3b/e/b/ (3c'/a/c'/ | (3d'/f/e/ (3d/c/B/ (3c/E/A/ | %68
 (3c/e/a/ (3c'/A/c/ (3e/c/e/ | (3a/e/c/ (3A/d/c/ (3B/c/A/ | (3G/A/F/ (3E/G/B/ (3e/d/c/ | %71
 (3B/e/B/ (3G/B/G/ E | EAB |{B} c2 B | EBc |{c} d2 c | eee | ed/c/B/A/ | Gdc | %79
 B- (3B/G/A/ (3B/c/d/ | (3(e/f/e/) (3(d/e/d/) (3(c/d/c/) | (3(d/B/c/) (3(d/e/f/) (3(=g/f/e/) | %82
 (3(d/e/d/) (3(c/d/c/) (3(B/c/B/) | (3(c/A/B/) (3(c/d/e/) (3(f/e/d/) | %84
 (3(c/d/c/) (3(B/c/B/) (3(A/B/A/) | (3G/F/G/ (3A/B/c/ (3d/c/B/ | (3c/B/A/ (3G/E/G/ (3B/d/B/ | %87
 (3c/A/c/ (3e/a/e/ (3c/A/c/ | edc | (d3/2e/4f/4)e | dcB | (c3/2d/4e/4)d | EEE | EF/G/A/B/ | cdTB | %95
 !fermata!A2 z!fine! | z2 c | (f2 ^e) | fd'c'- | c'/b/a/g/f | z2 B | (e2 ^d) | ec'b- | b/a/g/f/e | %104
 z2 e | (a2 g) | f3- | (f/e/^d/c/^B/d/) | Gc^d | e2 ^d | G^de | f2 e- | e(f/e/^d/c/) | (^Bc) z | %114
 z3 | z g2- | g3- | g3- | g3- | g3- | gGG | G(^A/^B/c/^d/) | ef^d | c2 z | z3 | z3 | z3 | z3 | z3 | %129
 z3 | z3 | z3 | z3 | z3 | z3 | z/ a/g/f/^e/g/ | cfg | a2 g | cga | b2 a- | a/g/b/a/g/f/ | %141
 ^e/g<c'a/ |[Q:1/4=71]"^adagio" f2 ^e | f3!D.C.! |] %144
V:2
 CEG | [EA]2 G | z GA- | AGA | cAG | A2 F | DBA |{A} [EG]3 | z [EA][DG] | [EA]2 [EG] | z [EB][EA] | %11
w: |||||||||||
 B2 A | z [CA][B,G] | z [DG][EA] | z [EB][EA] | [EG]3 | AGA | A2 ^A | B=A/G/A | [EG][CA][EB] | %20
w: |||||||||
 DE/D/C/B,/ | [G,B,]A,D | [EA][FB][EG] | [CE]3 | z [DA][E=G] | [DA] z z | z [E^G][B,F] | [EG] z z | %28
w: ||||||||
 z [B,E][CE] | z [B,E][DE] | z [A,F][EG] | [CE]3 | E A B |{B} c2 B | E B c |{c} d2 c | e e e | %37
w: ||||Klein- Zscho- cher|müs- se|so zart und|sü- ße|wie lau- ter|
 e(d/c/) (B/A/) | Gd c |{c} B2 (B/c/4d/4) |{d} c2 B | A E e | d2 c | B E E | %44
w: Man- * * del- *|ker- * ne|sein, Klein- * *|Zscho- cher|müs- se so|zart und|sü- ße wie|
 (A3/2B/4c/4) (B/c/4d/4) | (cA) e | (ed/c/) (B/A/) | G2 z | e d c | (d3/2e/4f/4) e | d c B | %51
w: lau- * * ter _ _|Man- * del-|ker- * * ne- *|sein,|Klen- Zscho- cher|müs- * * se|so zart und|
 (c3/2d/4e/4) d | E E E | EF/G/ A/B/ | cd B | A2 e | cd e | f d c | Bc d | e c B | AB c | dc/B/ e | %62
w: sü- * * ße|wie lau- ter|Man- * * del- *|ker- * ne|sein, Klein-|Zscho- * cher|müs- se so|zart _ und|sü- ße wie|lau- * ter|Man- * * del-|
 AB G | A3 | [CE] z [EB] | [Ec] z [EG] | [EG] z [EA] | [DG] z [CA] | [CE] z [CE] | [CE] z [B,F] | %70
w: ker- * ne|sein.|||||||
 [B,E] z [CE] | [B,G]2 z | CEG | A2 G | G,EC | B,2 E | B/A/G/F/E/D/ | CD>C | B,/A,/G,/F/E/^D/ | %79
w: |||||||||
 E2 z | B z F | [DF] z [^A,C] | [B,D] z [B,E] | [CE] z [DG] | [CA] z [A,C] | [G,B,](F/G/A/B/) | %86
w: |||||||
 A z [EG] | [CA]2 z | [C^A][FB][EA] | [DB]2 [E^A] | [DB][E=A][DG] | [CA]2 E | (A,/C/B,/A,/G,/F,/) | %93
w: |||||||
 E, z/ D/C/B,/ | A,[B,F][G,D] | !fermata![A,C]2 c | f2 c | BA G | (ABc) | F2 ^d | e2 B | AG F | %102
w: ||* In|un- se-|re _ Ge-|mein- * *|ne zieh|heu- te|ganz _ al-|
 GAB | E2 e | c^B c | (^d3/2e/4f/4) e | (^d^B) c | G3- | G3- | G3- | G2 z | z2 c | Ac f | ag f | %114
w: lein- * *|ne der|Ü- * ber-|fluß _ _ des|Se- * gens|ein,|_|||der|Ü- * ber-|fluß _ des|
 ec ^B | c2 z | ([^B,^DF][G,CE]) z | ([G,CG][^B,^DF]) z | ([EGc][^DF^B]) z | ([^D^B][Ec]) z | %120
w: Se- * gens|ein.|||||
 [CG][^B,F][CE] | [G,^D]2 z | [EG][CA][^B,G] | [CE]2 e | e2 e | e2 e | e/a/g/f/e/d/ | cB/A/ c | %128
w: |||* In|un- se-|re Ge-|mei- * * * * *|* ne _ zieh|
 c2 c | c2 c | c/f/e/d/c/B/ | A F A | G/A/B/c/ d | dc B | AB/A/ G/F/ | c3- | c3- | c3- | c2 z | %139
w: heu- te|ganz al-|lei- * * * * *|* ne der|Ü- * * * ber-|fluß _ des|Se- * * gens _|ein|_|||
 z2 f | dc B | c^E F | B/c/ TG2 | F3 |] %144
w: der|Ü- * ber|fluß _ des|Se- * gens|ein.|
V:3
 A,2 E | x3 | x E2 | F E2 | E2 B, | C D2 | B, E2 | x3 | x3 | x3 | x3 | F E2 | x3 | x3 | x3 | x3 | %16
 E2 E | D F2 | FEF | x3 | x3 | x3 | x3 | x3 | x3 | x3 | x3 | x3 | x3 | x3 | x3 | x3 | x3 | x3 | %34
 x3 | x3 | x3 | x3 | x3 | x3 | x3 | x3 | x3 | x3 | x3 | x3 | x3 | x3 | x3 | x3 | x3 | x3 | x3 | %53
 x3 | x3 | x3 | x3 | x3 | x3 | x3 | x3 | x3 | x3 | x3 | x3 | x3 | x3 | x3 | x3 | x3 | x3 | x3 | %72
 x3 | E3 | x3 | x3 | G/F/E/D/C/B,/ | x3 | x3 | x3 | x3 | x3 | x3 | x3 | x3 | x3 | x3 | x3 | x3 | %89
 x3 | x3 | x3 | x3 | x3 | x3 | x3 | x3 | x3 | x3 | x3 | x3 | x3 | x3 | x3 | x3 | x3 | x3 | x3 | %108
 x3 | x3 | x3 | x3 | x3 | x3 | x3 | x3 | x3 | x3 | x3 | G2 x | x3 | x3 | x3 | x3 | x3 | x3 | x3 | %127
 x3 | x3 | x3 | x3 | x3 | x3 | x3 | x3 | x3 | x3 | x3 | x3 | x3 | x3 | x3 | x3 | x3 |] %144
V:4
 A,,C,E, | A,CE | TD2 C | B,E,A, | A,,C,E, | A,F,D, | B,,G,,A,, | E,,(F,,/G,,/A,,/B,,/) | C,2 B,, | %9
 A,,C,E, | G,2 A,- | A,G,A, | A,,C,E, | A,B,C | DG,A, | EE,D, | C,B,,A,, | F,D,C, | B,,C,D, | %19
 E,F,G, | A,,B,,C, | D,C,B,, | A,,D,,E,, | A,,A,,/G,,/A,,/B,,/ | C,F,E, | F,D,C, | B,,E,D, | %27
 E,C,B,, | A,,D,C, | D,E,,G,, | A,,D,,E,, | A,,2 z | (A,,/C,/)(C,/E,/)(E,/A,/) | A,E, z | %34
 z/ G,/(G,/F,/)(F,/E,/) | E,A,, z | z/ E,,/(E,,/A,,/)(A,,/C,/) | C,G,, z | %38
 z/ B,,/(B,,/A,,/)(A,,/E,/) | E,E,, z | (A,,/B,,/C,/B,,/A,,/G,,/) | (A,,/B,,/A,,/G,,/A,,/F,,/) | %42
 (G,,/A,,/B,,/A,,/G,,/F,,/) | (G,,/A,,/B,,/G,,/A,,/B,,/) | (C,/D,/C,/B,,/A,,/G,,/) | %45
 (A,,/E,,/F,,/G,,/A,,/B,,/) | C,G,,A,, | (E,/D,/)(E,/F,/)(E,/D,/) | (C,/B,,/)(B,,/A,,/)(A,,/D,/) | %49
 D,D,, z | z/ E,/(E,/D,/)(D,/E,/) | E,A,, z | z/ C/(C/A,/)(A,/F,/) | F,D, z | %54
 z/ E,/(E,/D,/)(D,/E,/) | A,,A, z | (A,,/=G,,/)(F,,/E,,/)(F,,/E,,/) | (D,,/E,,/F,,/G,,/A,,/B,,/) | %58
 (C,/D,/E,/)(D,/E,/D,/) | (C,/B,,/A,,/G,,/A,,/B,,/) | (C,/F,/E,/D,/C,/B,,/) | %61
 (A,,/G,,/A,,/B,,/C,/D,/) | E,D,E, | A,E,C, | A,, z G,, | A,, z E, | D, z C, | B,, z A,, | %68
 A, z G, | F, z D, | E, z A,, | E,>D,C,/B,,/ | A,, z z | (A,,/B,,/C,/D,/E,) | z3 | %75
 (E,/D,/C,/B,,/A,,) | z3 | (A,/G,/F,/E,/D,) | z E,,A,, | E,(D,/C,/B,,/A,,/) | G,, z ^A,, | %81
 B,, z F,, | B,, z G,, | A,, z E,, | A,, z C, | E, z F, | D, z E, | A,,>B,,A,,/=G,,/ | F,, z z | %89
 z (F,/E,/D,/C,/) | B,, z z | z (E,/D,/C,/B,,/) | A,, z z | z/ D,/C,/B,,/A,,/G,,/ | F,,D,,E,, | %95
 !fermata!A,,2 z | z (F,E,) | (D,C,B,,) | (A,,B,,C,) | F,,2 z | z (E,^D,) | (C,B,,A,,) | %102
 (G,,A,,B,,) | E,,2 G,, | (A,,2 G,,) | F,,2 G,, | (A,,G,,F,,) | G,,(G,F,) | (E,2 ^D,) | %109
 (C,/^D,/E,/F,/G,) | TF,2 E, | ^D,E,C, | F,3- | F,E,A, | G,F,G, | C,/^B,,/C,/^D,/E,/C,/ | %116
 G,,C,^D, | E,(^D,/C,/^B,,/C,/) | G,,^D,E, | F,(E,/^D,/C,/D,/) | E,^D,C, | ^B,,2 z | C,F,,G,, | %123
 C,2 z | z/ (C/B,/A,/G,/F,/) | (E,/F,/E,/D,/C,/B,,/) | C,D,E, | A,,2 z | z/ (C/B,/A,/G,/F,/) | %129
 (^E,/F,/E,/^D,/C,/B,,/) | A,,B,,C, | F,,(F,/E,/D,/C,/) | (B,,/C,/B,,/A,,/G,,/F,,/) | ^E,,E,,E,, | %134
 F,,E,,D,, | C,,C,B,, | (A,,2 G,,) | (F,,/G,,/A,,/B,,/C,) | TB,,2 A,, | G,,C,F,, | B,,B,,B,, | %141
 B,,B,,A,, | D,B,,C, | F,,3 |] %144

